X:52
T: Die schoene Magdalene
N: A0054
O: Europa, Mitteleuropa, Deutschland
N: Melodie: Schmeltzel 1544 Quodlibet No. 19, dritte und vierte Zeile
N: von Boehme ergaenzt. (Vgl.A0065 und A0066, diese Angabe kann nicht
N: stimmen!)
R: Romanze, Ballade, Lied
M: 6/2
L: 1/4
K: F
F2 | c4c2c4c2 | d6d4
f2 | e4d2c4B2 | A6-A4
A2 | c4B2A4G2 | F6D4
FF | G4B2A4G2 | F6-F4

